X: 264
T: Cherry River Rag
B: canberra pickers and fiddlers
B: tunes
M:4/4
L:1/8
R: Country Rag
Q: 1/4=260
K:C
V:1 
((3ega|"A"c')eae c'eae|eeag e2cd|"D"eAdA dAcA|ed-dc Aedc|
"A"GAGA c2 cd|edeg aged-|"E"ed-cA cdcd|edcA "A"c2c2|
"A"c'eae c'eae|c'eag edcd|"D"eAdA eAdA|ed-dc AdcA|
"A"GcAA Gc-cd|eg-ge aged-|"E"ed-cA cd3|"A"c6||
E2|:"A"CDCD EGAB|cdeg aged|"E"c2 c(A BA)GA|cAGd- dcAE|
"A"C2 CD EGAB|cdeg aged-|"E"edcA cdec|[1 "E"dcA[Ec]- "A"[Ec]d [E2c2]:|2  "A"dcA[Ec]- [Ec]d [E2c2]|
% abcbook-tune_id 63ae8f1c878927980aae310a
% abcbook-tune_composer_id 
% abcbook-link-0 https://www.youtube.com/watch?v=tsTYZgB37R8
% abcbook-boost 0
% abcbook-difficulty 0
% abcbook-tags canberra pickers and fiddlers,old time tunes,steve ryan,© free
% abcbook-tablature 
% abcbook-transpose 
% abcbook-tuning GDAE
% abcbook-lastupdated 1739053512956
% abcbook-src-url https://tunebook.net/scrape/tunes.abc
% abcbook-soundfonts 
% abcbook-repeats 1


